numeric-4-box-multiple.svg

<svg fill="currentColor" viewBox="0 0 24 24"><path d="M3 5v16h16v2H3a2 2 0 0 1-2-2V5zm18-4a2 2 0 0 1 2 2v14a2 2 0 0 1-2 2H7a2 2 0 0 1-2-2V3a2 2 0 0 1 2-2zm-6 14h2V5h-2v4h-2V5h-2v6h4z"/></svg>

<svg  viewBox="0 0 24 24" fill="currentColor"><path  d="M3,5V21H19V23H3A2,2 0 0,1 1,21V5H3M21,1A2,2 0 0,1 23,3V17A2,2 0 0,1 21,19H7A2,2 0 0,1 5,17V3A2,2 0 0,1 7,1H21M15,15H17V5H15V9H13V5H11V11H15V15Z"/></svg>
